X: 35565
T: Ruth's
R: waltz
M: 3/4
K: Dmajor
DE|:F2 AF AB|AF E2 DE|F2 d2 c2|d4 dc|
B3 A Bc|BA F2 DE|1 F2 E2 D2|E4 DE:|2 F2 D2 D2|D4 dc||
|:B3 A Bc|BA F2 dc|B2 d2 e2|f4 dc|
B3 A Bc|BA F2 DE|1 F2 E2 D2|E4 dc:|2 F2 d2 c2|B4||

